images/indikatorenset/4146.svg

<?xml version="1.0" standalone="no"?><!DOCTYPE svg PUBLIC "-//W3C//DTD SVG 1.1//EN" "http://www.w3.org/Graphics/SVG/1.1/DTD/svg11.dtd"><svg xmlns:xlink="http://www.w3.org/1999/xlink" version="1.1" class="highcharts-root" style="font-family:Arial;font-size:12px;" xmlns="http://www.w3.org/2000/svg" width="485" height="415"><desc>Created with Highcharts 5.0.7</desc><defs><clipPath id="highcharts-lvmasyk-1"><rect x="0" y="0" width="379" height="275" fill="none"></rect></clipPath></defs><rect fill="#fbfbfb" class="highcharts-background" x="0" y="0" width="485" height="415" rx="0" ry="0"></rect><rect fill="none" class="highcharts-plot-background" x="59" y="75" width="379" height="275"></rect><g class="highcharts-grid highcharts-xaxis-grid "><path fill="none" class="highcharts-grid-line" d="M 66.5 75 L 66.5 350" opacity="1"></path><path fill="none" class="highcharts-grid-line" d="M 106.5 75 L 106.5 350" opacity="1"></path><path fill="none" class="highcharts-grid-line" d="M 146.5 75 L 146.5 350" opacity="1"></path><path fill="none" class="highcharts-grid-line" d="M 187.5 75 L 187.5 350" opacity="1"></path><path fill="none" class="highcharts-grid-line" d="M 227.5 75 L 227.5 350" opacity="1"></path><path fill="none" class="highcharts-grid-line" d="M 268.5 75 L 268.5 350" opacity="1"></path><path fill="none" class="highcharts-grid-line" d="M 308.5 75 L 308.5 350" opacity="1"></path><path fill="none" class="highcharts-grid-line" d="M 349.5 75 L 349.5 350" opacity="1"></path><path fill="none" class="highcharts-grid-line" d="M 389.5 75 L 389.5 350" opacity="1"></path><path fill="none" class="highcharts-grid-line" d="M 429.5 75 L 429.5 350" opacity="1"></path></g><g class="highcharts-grid highcharts-yaxis-grid "><path fill="none" stroke="#e6e6e6" stroke-width="1" class="highcharts-grid-line" d="M 59 350.5 L 438 350.5" opacity="1"></path><path fill="none" stroke="#e6e6e6" stroke-width="1" class="highcharts-grid-line" d="M 59 281.5 L 438 281.5" opacity="1"></path><path fill="none" stroke="#e6e6e6" stroke-width="1" class="highcharts-grid-line" d="M 59 213.5 L 438 213.5" opacity="1"></path><path fill="none" stroke="#e6e6e6" stroke-width="1" class="highcharts-grid-line" d="M 59 144.5 L 438 144.5" opacity="1"></path><path fill="none" stroke="#e6e6e6" stroke-width="1" class="highcharts-grid-line" d="M 59 74.5 L 438 74.5" opacity="1"></path></g><g class="highcharts-grid highcharts-yaxis-grid "><path fill="none" stroke="#e6e6e6" stroke-width="1" class="highcharts-grid-line" d="M 59 350.5 L 438 350.5" opacity="1"></path><path fill="none" stroke="#e6e6e6" stroke-width="1" class="highcharts-grid-line" d="M 59 281.5 L 438 281.5" opacity="1"></path><path fill="none" stroke="#e6e6e6" stroke-width="1" class="highcharts-grid-line" d="M 59 213.5 L 438 213.5" opacity="1"></path><path fill="none" stroke="#e6e6e6" stroke-width="1" class="highcharts-grid-line" d="M 59 144.5 L 438 144.5" opacity="1"></path><path fill="none" stroke="#e6e6e6" stroke-width="1" class="highcharts-grid-line" d="M 59 74.5 L 438 74.5" opacity="1"></path></g><rect fill="none" class="highcharts-plot-border" x="59" y="75" width="379" height="275"></rect><g class="highcharts-axis highcharts-xaxis "><path fill="none" class="highcharts-tick" stroke="#FFFFFF" stroke-width="1" d="M 66.5 350 L 66.5 360" opacity="1"></path><path fill="none" class="highcharts-tick" stroke="#FFFFFF" stroke-width="1" d="M 106.5 350 L 106.5 360" opacity="1"></path><path fill="none" class="highcharts-tick" stroke="#FFFFFF" stroke-width="1" d="M 146.5 350 L 146.5 360" opacity="1"></path><path fill="none" class="highcharts-tick" stroke="#FFFFFF" stroke-width="1" d="M 187.5 350 L 187.5 360" opacity="1"></path><path fill="none" class="highcharts-tick" stroke="#FFFFFF" stroke-width="1" d="M 227.5 350 L 227.5 360" opacity="1"></path><path fill="none" class="highcharts-tick" stroke="#FFFFFF" stroke-width="1" d="M 268.5 350 L 268.5 360" opacity="1"></path><path fill="none" class="highcharts-tick" stroke="#FFFFFF" stroke-width="1" d="M 308.5 350 L 308.5 360" opacity="1"></path><path fill="none" class="highcharts-tick" stroke="#FFFFFF" stroke-width="1" d="M 349.5 350 L 349.5 360" opacity="1"></path><path fill="none" class="highcharts-tick" stroke="#FFFFFF" stroke-width="1" d="M 389.5 350 L 389.5 360" opacity="1"></path><path fill="none" class="highcharts-tick" stroke="#FFFFFF" stroke-width="1" d="M 429.5 350 L 429.5 360" opacity="1"></path><path fill="none" class="highcharts-axis-line" stroke="#ccd6eb" stroke-width="1" d="M 59 350.5 L 438 350.5"></path></g><g class="highcharts-axis highcharts-yaxis "><path fill="none" class="highcharts-axis-line" d="M 59 75 L 59 350"></path></g><g class="highcharts-axis highcharts-yaxis "><path fill="none" class="highcharts-axis-line" d="M 438 75 L 438 350"></path></g><g class="highcharts-series-group"><g class="highcharts-series highcharts-series-0 highcharts-column-series highcharts-color-undefined highcharts-tracker" transform="translate(59,75) scale(1 1)" clip-path="url(#highcharts-lvmasyk-1)"><rect x="2.5" y="124.5" width="10" height="151" fill="#73b97c" class="highcharts-point" stroke="#ffffff" stroke-width="1"></rect><rect x="82.5" y="95.5" width="10" height="180" fill="#73b97c" class="highcharts-point" stroke="#ffffff" stroke-width="1"></rect><rect x="163.5" y="90.5" width="10" height="185" fill="#73b97c" class="highcharts-point" stroke="#ffffff" stroke-width="1"></rect><rect x="244.5" y="82.5" width="10" height="193" fill="#73b97c" class="highcharts-point" stroke="#ffffff" stroke-width="1"></rect><rect x="325.5" y="70.5" width="10" height="205" fill="#73b97c" class="highcharts-point" stroke="#ffffff" stroke-width="1"></rect><rect x="333.5" y="67.5" width="10" height="208" fill="#73b97c" class="highcharts-point" stroke="#ffffff" stroke-width="1"></rect><rect x="341.5" y="67.5" width="10" height="208" fill="#73b97c" class="highcharts-point" stroke="#ffffff" stroke-width="1"></rect><rect x="349.5" y="60.5" width="10" height="215" fill="#73b97c" class="highcharts-point" stroke="#ffffff" stroke-width="1"></rect><rect x="357.5" y="58.5" width="10" height="217" fill="#73b97c" class="highcharts-point" stroke="#ffffff" stroke-width="1"></rect><rect x="365.5" y="57.5" width="10" height="218" fill="#73b97c" class="highcharts-point" stroke="#ffffff" stroke-width="1"></rect></g><g class="highcharts-markers highcharts-series-0 highcharts-column-series highcharts-color-undefined " transform="translate(59,75) scale(1 1)" clip-path="none"></g><g class="highcharts-series highcharts-series-1 highcharts-line-series highcharts-color-undefined " transform="translate(59,75) scale(1 1)" clip-path="url(#highcharts-lvmasyk-1)"><path fill="none" d="M 7.6769722814502 69.609375 L 88.487206823028 47.265625 L 169.29744136461 48.125 L 250.10767590618 42.96875 L 330.91791044776 31.796875 L 338.99893390192 29.21875 L 347.07995735608 29.21875 L 355.16098081023 21.484375 L 363.24200426439 20.625 L 371.32302771855 19.765625" class="highcharts-graph" stroke="#cd9c00" stroke-width="2" stroke-linejoin="round" stroke-linecap="round"></path><path fill="none" d="M -2.3230277185498 69.609375 L 7.6769722814502 69.609375 L 88.487206823028 47.265625 L 169.29744136461 48.125 L 250.10767590618 42.96875 L 330.91791044776 31.796875 L 338.99893390192 29.21875 L 347.07995735608 29.21875 L 355.16098081023 21.484375 L 363.24200426439 20.625 L 371.32302771855 19.765625 L 381.32302771855 19.765625" stroke-linejoin="round" visibility="visible" stroke="rgba(192,192,192,0.0001)" stroke-width="22" class="highcharts-tracker"></path></g><g class="highcharts-markers highcharts-series-1 highcharts-line-series highcharts-color-undefined highcharts-tracker" transform="translate(59,75) scale(1 1)" clip-path="none"><path fill="#cd9c00" d="M 11 70 A 4 4 0 1 1 10.999998000000167 69.99600000066667 Z" class="highcharts-point"></path><path fill="#cd9c00" d="M 92 47 A 4 4 0 1 1 91.99999800000016 46.99600000066666 Z" class="highcharts-point"></path><path fill="#cd9c00" d="M 173 48 A 4 4 0 1 1 172.99999800000018 47.99600000066666 Z" class="highcharts-point"></path><path fill="#cd9c00" d="M 254 43 A 4 4 0 1 1 253.99999800000018 42.99600000066666 Z" class="highcharts-point"></path><path fill="#cd9c00" d="M 334 32 A 4 4 0 1 1 333.9999980000002 31.996000000666665 Z" class="highcharts-point"></path><path fill="#cd9c00" d="M 342 29 A 4 4 0 1 1 341.9999980000002 28.996000000666665 Z" class="highcharts-point"></path><path fill="#cd9c00" d="M 351 29 A 4 4 0 1 1 350.9999980000002 28.996000000666665 Z" class="highcharts-point"></path><path fill="#cd9c00" d="M 359 21 A 4 4 0 1 1 358.9999980000002 20.996000000666665 Z" class="highcharts-point"></path><path fill="#cd9c00" d="M 367 21 A 4 4 0 1 1 366.9999980000002 20.996000000666665 Z" class="highcharts-point"></path><path fill="#cd9c00" d="M 375 20 A 4 4 0 1 1 374.9999980000002 19.996000000666665 Z" class="highcharts-point"></path></g></g><text x="10" text-anchor="start" class="highcharts-title" style="color:#000000;font-size:14px;font-weight:bold;fill:#000000;" y="21"><tspan>2.1.a Wohnungen mit 4 oder mehr Zimmern</tspan></text><g class="highcharts-legend" transform="translate(10,35)"><rect fill="none" class="highcharts-legend-box" rx="0" ry="0" x="0" y="0" width="269" height="25" visibility="visible"></rect><g><g><g class="highcharts-legend-item highcharts-column-series highcharts-color-undefined highcharts-series-0" transform="translate(8,3)"><text x="21" style="color:#333333;font-size:12px;font-weight:normal;cursor:pointer;fill:#333333;" text-anchor="start" y="15"><tspan>4 und mehr Zimmer</tspan></text><rect x="2" y="4" width="12" height="12" fill="#73b97c" class="highcharts-point"></rect></g><g class="highcharts-legend-item highcharts-line-series highcharts-color-undefined highcharts-series-1" transform="translate(153.59375,3)"><path fill="none" d="M 0 11 L 16 11" class="highcharts-graph" stroke="#cd9c00" stroke-width="2"></path><path fill="#cd9c00" d="M 12 11 A 4 4 0 1 1 11.999998000000167 10.996000000666664 Z" class="highcharts-point"></path><text x="21" y="15" style="color:#333333;font-size:12px;font-weight:normal;cursor:pointer;fill:#333333;" text-anchor="start"><tspan>Anteil in Prozent</tspan></text></g></g></g></g><g class="highcharts-axis-labels highcharts-xaxis-labels "><text x="66.67697228145025" style="color:#000000;cursor:default;font-size:11px;fill:#000000;" text-anchor="middle" transform="translate(0,0)" y="369" opacity="1">1970</text><text x="107.0820895522391" style="color:#000000;cursor:default;font-size:11px;fill:#000000;" text-anchor="middle" transform="translate(0,0)" y="369" opacity="1">1975</text><text x="147.48720682302792" style="color:#000000;cursor:default;font-size:11px;fill:#000000;" text-anchor="middle" transform="translate(0,0)" y="369" opacity="1">1980</text><text x="187.89232409381677" style="color:#000000;cursor:default;font-size:11px;fill:#000000;" text-anchor="middle" transform="translate(0,0)" y="369" opacity="1">1985</text><text x="228.29744136460562" style="color:#000000;cursor:default;font-size:11px;fill:#000000;" text-anchor="middle" transform="translate(0,0)" y="369" opacity="1">1990</text><text x="268.70255863539444" style="color:#000000;cursor:default;font-size:11px;fill:#000000;" text-anchor="middle" transform="translate(0,0)" y="369" opacity="1">1995</text><text x="309.1076759061833" style="color:#000000;cursor:default;font-size:11px;fill:#000000;" text-anchor="middle" transform="translate(0,0)" y="369" opacity="1">2000</text><text x="349.5127931769721" style="color:#000000;cursor:default;font-size:11px;fill:#000000;" text-anchor="middle" transform="translate(0,0)" y="369" opacity="1">2005</text><text x="389.9179104477609" style="color:#000000;cursor:default;font-size:11px;fill:#000000;" text-anchor="middle" transform="translate(0,0)" y="369" opacity="1">2010</text><text x="430.3230277185498" style="color:#000000;cursor:default;font-size:11px;fill:#000000;" text-anchor="middle" transform="translate(0,0)" y="369" opacity="1">2015</text></g><g class="highcharts-axis-labels highcharts-yaxis-labels "><text x="44" style="color:#000000;cursor:default;font-size:11px;fill:#000000;" text-anchor="end" transform="translate(0,0)" y="355" opacity="1"><tspan>0</tspan></text><text x="44" style="color:#000000;cursor:default;font-size:11px;fill:#000000;" text-anchor="end" transform="translate(0,0)" y="286" opacity="1"><tspan>10 000</tspan></text><text x="44" style="color:#000000;cursor:default;font-size:11px;fill:#000000;" text-anchor="end" transform="translate(0,0)" y="217" opacity="1"><tspan>20 000</tspan></text><text x="44" style="color:#000000;cursor:default;font-size:11px;fill:#000000;" text-anchor="end" transform="translate(0,0)" y="148" opacity="1"><tspan>30 000</tspan></text><text x="44" style="color:#000000;cursor:default;font-size:11px;fill:#000000;" text-anchor="end" transform="translate(0,0)" y="80" opacity="1"><tspan>40 000</tspan></text></g><g class="highcharts-axis-labels highcharts-yaxis-labels "><text x="453" style="color:#000000;cursor:default;font-size:11px;fill:#000000;" text-anchor="start" transform="translate(0,0)" y="355" opacity="1"><tspan>0%</tspan></text><text x="453" style="color:#000000;cursor:default;font-size:11px;fill:#000000;" text-anchor="start" transform="translate(0,0)" y="286" opacity="1"><tspan>8%</tspan></text><text x="453" style="color:#000000;cursor:default;font-size:11px;fill:#000000;" text-anchor="start" transform="translate(0,0)" y="217" opacity="1"><tspan>16%</tspan></text><text x="453" style="color:#000000;cursor:default;font-size:11px;fill:#000000;" text-anchor="start" transform="translate(0,0)" y="148" opacity="1"><tspan>24%</tspan></text><text x="453" style="color:#000000;cursor:default;font-size:11px;fill:#000000;" text-anchor="start" transform="translate(0,0)" y="80" opacity="1"><tspan>32%</tspan></text></g><text x="10" class="highcharts-credits" text-anchor="start" style="cursor:default;color:#000000;font-size:10px;fill:#000000;" y="400"><tspan>Quelle: Statistisches Amt Basel-Stadt, kantonale Gebäude- und Wohnungsstatistik</tspan></text></svg>

<svg class="highcharts-root" xmlns="http://www.w3.org/2000/svg" viewBox="0 0 485 415" font-family="Arial" font-size="12">
    <defs>
        <clipPath id="a">
            <path fill="none" d="M0 0h379v275H0z"/>
        </clipPath>
    </defs>
    <rect fill="#fbfbfb" class="highcharts-background" width="485" height="415" rx="0" ry="0"/>
    <path fill="none" class="highcharts-plot-background" d="M59 75h379v275H59z"/>
    <g class="highcharts-grid highcharts-xaxis-grid">
        <path fill="none" class="highcharts-grid-line" d="M66.5 75v275m40-275v275m40-275v275m41-275v275m40-275v275m41-275v275m40-275v275m41-275v275m40-275v275m40-275v275"/>
    </g>
    <g class="highcharts-grid highcharts-yaxis-grid">
        <path fill="none" stroke="#e6e6e6" class="highcharts-grid-line" d="M59 350.5h379m-379-69h379m-379-68h379m-379-69h379m-379-70h379"/>
    </g>
    <g class="highcharts-grid highcharts-yaxis-grid">
        <path fill="none" stroke="#e6e6e6" class="highcharts-grid-line" d="M59 350.5h379m-379-69h379m-379-68h379m-379-69h379m-379-70h379"/>
    </g>
    <path fill="none" class="highcharts-plot-border" d="M59 75h379v275H59z"/>
    <g class="highcharts-axis highcharts-xaxis">
        <path fill="none" class="highcharts-tick" stroke="#FFF" d="M66.5 350v10m40-10v10m40-10v10m41-10v10m40-10v10m41-10v10m40-10v10m41-10v10m40-10v10m40-10v10"/>
        <path fill="none" class="highcharts-axis-line" stroke="#ccd6eb" d="M59 350.5h379"/>
    </g>
    <g class="highcharts-axis highcharts-yaxis">
        <path fill="none" class="highcharts-axis-line" d="M59 75v275"/>
    </g>
    <g class="highcharts-axis highcharts-yaxis">
        <path fill="none" class="highcharts-axis-line" d="M438 75v275"/>
    </g>
    <g class="highcharts-series-group">
        <g class="highcharts-series highcharts-series-0 highcharts-column-series highcharts-color-undefined highcharts-tracker" transform="translate(59 75)" clip-path="url(#a)">
            <path fill="#73b97c" class="highcharts-point" stroke="#fff" d="M2.5 124.5h10v151h-10zm80-29h10v180h-10zm81-5h10v185h-10zm81-8h10v193h-10zm81-12h10v205h-10z"/>
            <path fill="#73b97c" class="highcharts-point" stroke="#fff" d="M333.5 67.5h10v208h-10z"/>
            <path fill="#73b97c" class="highcharts-point" stroke="#fff" d="M341.5 67.5h10v208h-10z"/>
            <path fill="#73b97c" class="highcharts-point" stroke="#fff" d="M349.5 60.5h10v215h-10z"/>
            <path fill="#73b97c" class="highcharts-point" stroke="#fff" d="M357.5 58.5h10v217h-10z"/>
            <path fill="#73b97c" class="highcharts-point" stroke="#fff" d="M365.5 57.5h10v218h-10z"/>
        </g>
        <g class="highcharts-series highcharts-series-1 highcharts-line-series highcharts-color-undefined" transform="translate(59 75)" clip-path="url(#a)">
            <path fill="none" d="M7.677 69.61l80.81-22.344 80.81.859 80.81-5.156 80.81-11.172L339 29.219h8.081l8.081-7.735 8.081-.859 8.081-.86" class="highcharts-graph" stroke="#cd9c00" stroke-width="2" stroke-linejoin="round" stroke-linecap="round"/>
            <path fill="none" d="M-2.323 69.61h10l80.81-22.344 80.81.859 80.81-5.156 80.81-11.172L339 29.219h8.081l8.081-7.735 8.081-.859 8.081-.86h10" stroke-linejoin="round" stroke="rgba(192,192,192,0.0001)" stroke-width="22" class="highcharts-tracker"/>
        </g>
        <g class="highcharts-markers highcharts-series-1 highcharts-line-series highcharts-color-undefined highcharts-tracker">
            <path fill="#cd9c00" d="M70 145a4 4 0 1 1 0-.004zm81-23a4 4 0 1 1 0-.004zm81 1a4 4 0 1 1 0-.004zm81-5a4 4 0 1 1 0-.004zm80-11a4 4 0 1 1 0-.004zm8-3a4 4 0 1 1 0-.004zm9 0a4 4 0 1 1 0-.004zm8-8a4 4 0 1 1 0-.004z" class="highcharts-point"/>
            <path fill="#cd9c00" d="M426 96a4 4 0 1 1 0-.004z" class="highcharts-point"/>
            <path fill="#cd9c00" d="M434 95a4 4 0 1 1 0-.004z" class="highcharts-point"/>
        </g>
    </g>
    <text x="10" class="highcharts-title" y="21" color="#000" font-size="14" font-weight="700">
        <tspan>2.1.a Wohnungen mit 4 oder mehr Zimmern</tspan>
    </text>
    <g class="highcharts-legend" transform="translate(10 35)">
        <rect fill="none" class="highcharts-legend-box" rx="0" ry="0" width="269" height="25"/>
        <g class="highcharts-legend-item highcharts-column-series highcharts-color-undefined highcharts-series-0">
            <text x="21" y="15" color="#333" font-weight="400" cursor="pointer" fill="#333" transform="translate(8 3)">
                <tspan>4 und mehr Zimmer</tspan>
            </text>
            <path fill="#73b97c" class="highcharts-point" d="M10 7h12v12H10z"/>
        </g>
        <g class="highcharts-legend-item highcharts-line-series highcharts-color-undefined highcharts-series-1">
            <path fill="none" d="M153.594 14h16" class="highcharts-graph" stroke="#cd9c00" stroke-width="2"/>
            <path fill="#cd9c00" d="M165.594 14a4 4 0 1 1 0-.004z" class="highcharts-point"/>
            <text x="21" y="15" color="#333" font-weight="400" cursor="pointer" fill="#333" transform="translate(153.594 3)">
                <tspan>Anteil in Prozent</tspan>
            </text>
        </g>
    </g>
    <g class="highcharts-axis-labels highcharts-xaxis-labels" text-anchor="middle" color="#000" cursor="default" font-size="11">
        <text x="66.677" y="369">
            1970
        </text>
        <text x="107.082" y="369">
            1975
        </text>
        <text x="147.487" y="369">
            1980
        </text>
        <text x="187.892" y="369">
            1985
        </text>
        <text x="228.297" y="369">
            1990
        </text>
        <text x="268.703" y="369">
            1995
        </text>
        <text x="309.108" y="369">
            2000
        </text>
        <text x="349.513" y="369">
            2005
        </text>
        <text x="389.918" y="369">
            2010
        </text>
        <text x="430.323" y="369">
            2015
        </text>
    </g>
    <g class="highcharts-axis-labels highcharts-yaxis-labels" text-anchor="end" color="#000" cursor="default" font-size="11">
        <text x="44" y="355">
            <tspan>0</tspan>
        </text>
        <text x="44" y="286">
            <tspan>10 000</tspan>
        </text>
        <text x="44" y="217">
            <tspan>20 000</tspan>
        </text>
        <text x="44" y="148">
            <tspan>30 000</tspan>
        </text>
        <text x="44" y="80">
            <tspan>40 000</tspan>
        </text>
    </g>
    <g class="highcharts-axis-labels highcharts-yaxis-labels" color="#000" cursor="default" font-size="11">
        <text x="453" y="355">
            <tspan>0%</tspan>
        </text>
        <text x="453" y="286">
            <tspan>8%</tspan>
        </text>
        <text x="453" y="217">
            <tspan>16%</tspan>
        </text>
        <text x="453" y="148">
            <tspan>24%</tspan>
        </text>
        <text x="453" y="80">
            <tspan>32%</tspan>
        </text>
    </g>
    <text x="10" class="highcharts-credits" y="400" cursor="default" color="#000" font-size="10">
        <tspan>Quelle: Statistisches Amt Basel-Stadt, kantonale Gebäude- und Wohnungsstatistik</tspan>
    </text>
</svg>
